packages/assets/static/images/icons/bookmark-simple.svg

<svg width="24" height="24" viewBox="0 0 24 24" xmlns="http://www.w3.org/2000/svg" fill="currentColor" aria-hidden="true"> <path d="M16.8335 2.25H6.3335C5.83622 2.25 5.3593 2.44754 5.00767 2.79917C4.65604 3.15081 4.4585 3.62772 4.4585 4.125V20.625C4.45843 20.8258 4.51213 21.0231 4.61403 21.1961C4.71593 21.3692 4.86231 21.5119 5.03797 21.6093C5.21362 21.7067 5.41215 21.7552 5.61293 21.75C5.81371 21.7447 6.00943 21.6858 6.17975 21.5794L11.5826 18.2044L16.9872 21.5794C17.1576 21.6858 17.3533 21.7447 17.5541 21.75C17.7548 21.7552 17.9534 21.7067 18.129 21.6093C18.3047 21.5119 18.4511 21.3692 18.553 21.1961C18.6549 21.0231 18.7086 20.8258 18.7085 20.625V4.125C18.7085 3.62772 18.511 3.15081 18.1593 2.79917C17.8077 2.44754 17.3308 2.25 16.8335 2.25ZM16.4585 18.5953L12.1788 15.9206C12 15.8089 11.7934 15.7496 11.5826 15.7496C11.3717 15.7496 11.1651 15.8089 10.9863 15.9206L6.7085 18.5953V4.5H16.4585V18.5953Z"/> </svg>

<svg viewBox="0 0 24 24" xmlns="http://www.w3.org/2000/svg" aria-hidden="true" fill="currentColor"><path d="M16.834 2.25h-10.5a1.875 1.875 0 0 0-1.875 1.875v16.5a1.125 1.125 0 0 0 1.72.954l5.404-3.375 5.404 3.375a1.126 1.126 0 0 0 1.722-.954v-16.5a1.875 1.875 0 0 0-1.875-1.875m-.375 16.345-4.28-2.674a1.13 1.13 0 0 0-1.193 0l-4.278 2.674V4.5h9.75z"/></svg>
